X:1
T:The Fire Is Burning
T:George Crawford Hugg
T:The Fire Is Burning
T:Public Domain
T:Public Domain
T:Public Domain
C:George Crawford Hugg
Z:Public Domain
%%score ( 1 2 ) ( 3 4 )
L:1/8
M:4/4
K:Db
V:1 treble 
V:2 treble 
V:3 bass 
V:4 bass 
V:1
 [FA]3 [FA] [GB][FA][DF]D | [DB]2 [Dd]2 [Gd]2 [Ac][GB] | [FA]3 [FA] [GB][FA][EG][DF] | %3
w: 1.~I’ve been on Mount Pis- gah’s|y height, And I’ve sat-|is- fied my long- ing heart’s|
w: 2.~I will walk with Je- sus,|His name, And to be|like Him I ev- ’ry day|
w: 3.~I my all up- on the|tar lay, As I to|my clo- set lov- ing- ly|
w: 4.~By faith’s eye I scan the|cean’s foam, And be- yond|I see the ha- ven I|
 [CE]2 [EA]2 (D2 C2) | [FA]3 [FA] [GB][FA][DF]D | [DB]2 [Dd]2 [Bd]2 [Ac][GB] | %6
w: de- sire; For *|caught a glimpse of glo- ry|And my soul is burn-|
w: as- pire; For *|love is like a heav’n- ly|And my soul is burn-|
w: re- tire; And *|flame con- sumes while there I|And my soul is burn-|
w: de- sire; There *|view the bea- con lights of|And my soul is burn-|
 [FA]3 [FA] [GB][GA][CE][CF] | (D6 FG) ||"^Refrain" [FA]3 [FA] [GB][FA][DF][FA] | %9
w: ing with the fire. * *|||
w: ing with the fire. O the|fire * *|burn- ing, yes, ’tis bright- ly|
w: ing with the fire. * *|||
w: ing with the fire. * *|||
 [Fd]3 [Fd] [Ge][Gd][GB][Gd] | [FA]3 [FA] [GB][FA][DF][A,D] | [CE]2 [CA]2 (D2 C2) | %12
w: |||
w: burn- ing, O ’tis burn- ing,|burn- ing in my soul; O|the fire is *|
w: |||
w: |||
 [FA]3 [FA] [GB][FA][DF][FA] | [Fd]3 [Fd] [Ge][Gd][GB][Gd] | [FA]3 [FA] [GB][FA]FA | %15
w: |||
w: ing, yes, ’tis bright- ly burn-|ing, O ’tis burn- ing, burn-|ing in my soul. * *|
w: |||
w: |||
 (FF)(GG) [Fd]4 |] %16
w: |
w: |
w: |
w: |
V:2
 x7 D | x8 | x8 | x4 A4 | x7 D | x8 | x8 | D6 x2 || x8 | x8 | x8 | x4 A4 | x8 | x8 | x6 FA | %15
w: loft-|||I|bright,|||||||||||
w: bless|||His|flame,|||is||||burn-||||
w: al-|||the|pray,|||||||||||
w: o-|||I|home,|||||||||||
 d2 c2 x4 |] %16
w: |
w: |
w: |
w: |
V:3
 [D,D]3 [D,D] [D,D][D,D][D,A,][D,F,] | G,2 [G,B,]2 [G,B,]2 [G,D][G,D] | %2
w: ~ ~ ~ ~ ~ ~|~ ~ ~ ~ ~|
 [D,D]3 [D,D] [D,D][D,D][C,A,][D,A,] | A,2 [G,A,]2 (F,2 E,2) | %4
w: ~ ~ ~ ~ ~ ~|~ ~ ~ *|
 [D,A,]3 [D,D] [D,D][D,D][D,A,][D,F,] | G,2 [G,B,]2 [G,D]2 [G,D][G,D] | %6
w: ~ ~ ~ ~ ~ ~|~ ~ ~ ~ ~|
 [A,D]3 [A,D] [A,C][A,C][A,,G,][A,,A,] | [D,F,]6 z2 || [D,D]3 [D,D] [D,D][D,D][D,A,][D,D] | %9
w: ~ ~ ~ ~ ~ ~|~|~ ~ ~ ~ ~ ~|
 [D,A,]3 [D,A,] [G,B,][G,B,][G,D][G,B,] | [D,D]3 [D,D] [D,D][D,D][D,A,][D,F,] | %11
w: ~ ~ ~ ~ ~ ~|~ ~ ~ ~ ~ ~|
 A,2 [G,A,]2 (F,2 E,2) | [D,D]3 [D,D] [D,D][D,D][D,A,][D,D] | %13
w: ~ ~ ~ *|~ ~ ~ ~ ~ ~|
 [D,A,]3 [D,A,] [G,B,][G,B,][G,D][G,B,] | [D,D]3 [D,D] [D,D][D,D]D,F, | A,A,A,A, [D,A,]4 |] %16
w: ~ ~ ~ ~ ~ ~|burn- ing in my soul. *||
V:4
 x8 | G,2 x6 | x8 | A,2 A,4 x2 | x8 | G,2 x6 | x8 | x8 || x8 | x8 | x8 | A,2 A,4 x2 | x8 | x8 | %14
w: |~||~ ~||~||||||~ ~|||
 x6 D,F, | A,2 A,,2 x4 |] %16
w: ||

